src/Icon/svgs/PhotoAdd.svg

<svg width="24" height="24" viewBox="0 0 24 24" fill="none" xmlns="http://www.w3.org/2000/svg">
<path fill-rule="evenodd" clip-rule="evenodd" d="M21 15H19V4H4V19H15V21H3C2.44772 21 2 20.5772 2 20.0556V2.94444C2 2.42284 2.44772 2 3 2H20C20.5523 2 21 2.42284 21 2.94444V15ZM9 12.5L11 15L14 11L17 15V17L5.5 17L9 12.5ZM19 19V17H21V19H23V21H21V23H19V21H17V19H19Z" fill="#1B1C1D"/>
</svg>

<svg xmlns="http://www.w3.org/2000/svg" width="24" height="24" fill="none"  xmlns:v="https://vecta.io/nano"><path fill-rule="evenodd" d="M21 15h-2V4H4v15h11v2H3c-.552 0-1-.423-1-.944V2.944C2 2.423 2.448 2 3 2h17c.552 0 1 .423 1 .944V15zM9 12.5l2 2.5 3-4 3 4v2H5.5L9 12.5zM19 19v-2h2v2h2v2h-2v2h-2v-2h-2v-2h2z" fill="#1b1c1d"/></svg>
